X: 10
T: Dulcis amica Dei / Da pacem
N: Derived from Gas2033-Dulcis_amica_Dei__Da_pacem.krn
C: Gaspar van Weerbeke
%%abc-version 2.0
%%abcx-abcm2ps-target-version 5.9.1 (29 Sep 2008)
%%abc-creator hum2abc beta
%%abcx-conversion-date 2019/02/16 20:36:45
%%abc-edited-by Jesse Rodin
%%abc-edited-by Jesse Rodin
%%abcx-initial-encoding-date 2014/08/07/
%%humdrum-veritas 49550691
%%humdrum-veritas-data 406327879
%%linebreak <none>
%%barnumbers 0
L: 1/4
M: 3/1
Q: 1/2=120
V: 1 clef=treble
V: 2 clef=treble-8
V: 3 clef=treble-8
V: 4 clef=treble-8
V: 5 clef=bass
K: F
[V:1] z12 | 
[V:2] z12 | 
[V:3] z12 | 
[V:4] G8F4 | 
[V:5] G,,4B,,4A,,4 | 
[V:1] G8F4 | 
[V:2] z12 | 
[V:3] z12 | 
[V:4] G4B4A4 | 
[V:5] G,,2C,2B,,2G,,2D,4 | 
[V:1] G4B4A4 | 
[V:2] G8F4 | 
[V:3] z12 | 
[V:4] z12 | 
[V:5] G,,8D,4 | 
[V:1] D2E2D2G3FF2- | 
[V:2] G4B4A4 | 
[V:3] z12 | 
[V:4] z4G4D4- | 
[V:5] z12 | 
[V:1] F2A4F2E4 | 
[V:2] D4z2d4c2 | 
[V:3] z12 | 
[V:4] D2F4D2A4 | 
[V:5] z12 | 
[V:1] D2B2A2G4^F2 | 
[V:2] B2G2F2G2A4 | 
[V:3] z12 | 
[V:4] z4z4D4 | 
[V:5] z12 | 
[V:1] G8B4 | 
[V:2] G4z4G4 | 
[V:3] z12 | 
[V:4] E2G3AB3cd2- | 
[V:5] z12 | 
[V:1] A4G6G2 | 
[V:2] F4_E6_E2 | 
[V:3] z12 | 
[V:4] dcd2_edcBc4 | 
[V:5] z12 | 
[V:1] F8z4 | 
[V:2] D4z2D4=E2 | 
[V:3] z12 | 
[V:4] d6cBA2G2 | 
[V:5] z12 | 
[V:1] z2D4E2F4 | 
[V:2] F4G4A4 | 
[V:3] z12 | 
[V:4] A3GE4D4 | 
[V:5] z12 | 
[V:1] G4A4B2c2- | 
[V:2] B2c4d4c2 | 
[V:3] z12 | 
[V:4] z2C2F4G2A2- | 
[V:5] z12 | 
[V:1] cBAGF2G4^F2 | 
[V:2] A2d4G2A4 | 
[V:3] z12 | 
[V:4] AGF2D2E2D4 | 
[V:5] z12 | 
[V:1] G12 | 
[V:2] G12 | 
[V:3] z12 | 
[V:4] z4z4d4 | 
[V:5] G,,8G,4 | 
[V:1] z12 | 
[V:2] z12 | 
[V:3] z12 | 
[V:4] _e2d4cBcBAG | 
[V:5] G,8_E,4 | 
[V:1] z12 | 
[V:2] z12 | 
[V:3] z12 | 
[V:4] F8E4 | 
[V:5] D,6B,,2C,4 | 
[V:1] z12 | 
[V:2] z12 | 
[V:3] z12 | 
[V:4] D4z2G4E2 | 
[V:5] G,,8B,,2C,2 | 
[V:1] z12 | 
[V:2] z12 | 
[V:3] z12 | 
[V:4] F2A4B2c3B | 
[V:5] D,3E,F,2G,2E,2F,2- | 
[V:1] z12 | 
[V:2] z12 | 
[V:3] z12 | 
[V:4] A2G2F2G2A4 | 
[V:5] F,2B,2A,2G,4F,2 | 
[V:1] z12 | 
[V:2] z12 | 
[V:3] z12 | 
[V:4] B3AGFG2A3G | 
[V:5] G,2D,2_E,D,C,B,,A,,2D,2- | 
[V:1] z12 | 
[V:2] z12 | 
[V:3] z12 | 
[V:4] F2E2D2G4^F2 | 
[V:5] D,2C,2B,,2C,2A,,4 | 
[V:1] z4z4G4- | 
[V:2] z4z4d4 | 
[V:3] z12 | 
[V:4] G8D4 | 
[V:5] G,,8G,,4 | 
[V:1] G4B8 | 
[V:2] _e4d4B4 | 
[V:3] G12 | 
[V:4] z4D8 | 
[V:5] C,4B,,4G,,4 | 
[V:1] A4A4c4 | 
[V:2] c8A4 | 
[V:3] F12 | 
[V:4] C8C4 | 
[V:5] A,,12 | 
[V:1] B2G3FD2E4 | 
[V:2] B8c4 | 
[V:3] G12 | 
[V:4] D6G4E2 | 
[V:5] G,,8C,4 | 
[V:1] D8z4 | 
[V:2] d2f3edcd4 | 
[V:3] B12- | 
[V:4] F8F4 | 
[V:5] B,,12- | 
[V:1] F4G2B4G2 | 
[V:2] B3cd4z4 | 
[V:3] B12 | 
[V:4] D8G4 | 
[V:5] B,,8G,,4 | 
[V:1] A2c3BAGA4 | 
[V:2] A4F2f4f2 | 
[V:3] c12 | 
[V:4] C4F8 | 
[V:5] F,,12 | 
[V:1] B4z2B3AF2 | 
[V:2] d3cBAG4d2 | 
[V:3] B12 | 
[V:4] G6_E4D2 | 
[V:5] z12 | 
[V:1] G3FD2F2G4 | 
[V:2] B2_e3dd4c2 | 
[V:3] z12 | 
[V:4] _E2C2D4_E4 | 
[V:5] z12 | 
[V:1] F8A4 | 
[V:2] d8z2D2 | 
[V:3] A12- | 
[V:4] D4z4F3E | 
[V:5] D,8D,4 | 
[V:1] c4B4G4- | 
[V:2] E3FG4d4 | 
[V:3] A4B8 | 
[V:4] C4D8 | 
[V:5] A,,4G,,8 | 
[V:1] G2G2A4AGFE | 
[V:2] z4A3Bc4 | 
[V:3] c12 | 
[V:4] E4F6A2 | 
[V:5] C,4z4F,,4 | 
[V:1] D2G2AG^FEF4 | 
[V:2] z2d3ef2d4 | 
[V:3] B4A8 | 
[V:4] B2G2D3EF2D2 | 
[V:5] G,,4D,8 | 
[V:1] G12 | 
[V:2] B6G2G4 | 
[V:3] G12 | 
[V:4] D8z4 | 
[V:5] G,,12 | 
[V:1] z4z4D4 | 
[V:2] z12 | 
[V:3] z12 | 
[V:4] D4E2F4D2 | 
[V:5] z12 | 
[V:1] E2F4D2C2D2- | 
[V:2] z12 | 
[V:3] z12 | 
[V:4] C2D3EFGA2B2 | 
[V:5] z12 | 
[V:1] DEFGA2B2G4 | 
[V:2] z12 | 
[V:3] z12 | 
[V:4] G2A2F2G3FED | 
[V:5] z12 | 
[V:1] _E2D2B,2C4A,2 | 
[V:2] z12 | 
[V:3] z12 | 
[V:4] C2G4E2F4 | 
[V:5] z12 | 
[V:1] G,4z4z4 | 
[V:2] G3AB2c4A2 | 
[V:3] z12 | 
[V:4] z12 | 
[V:5] z2G,4E,2F,4 | 
[V:1] z12 | 
[V:2] B2G4G2E2F2 | 
[V:3] z12 | 
[V:4] z12 | 
[V:5] G,,3A,,B,,2C,4A,,2 | 
[V:1] z12 | 
[V:2] G4D2E2F2G2- | 
[V:3] z12 | 
[V:4] z12 | 
[V:5] B,,2G,,4C,2A,,2B,,2 | 
[V:1] z12 | 
[V:2] G2A2B2c2d4 | 
[V:3] z12 | 
[V:4] z12 | 
[V:5] C,4G,,2A,,2B,,2C,2- | 
[V:1] z12 | 
[V:2] c2BA2GG4^F2 | 
[V:3] z12 | 
[V:4] z12 | 
[V:5] C,2D,4B,,2A,,4 | 
[V:1] z4G8 | 
[V:2] G8z2G2 | 
[V:3] B12- | 
[V:4] D8_E4 | 
[V:5] G,,8z4 | 
[V:1] F2G4FED2G2 | 
[V:2] A2B2G4d4 | 
[V:3] B12 | 
[V:4] D2_E4DCB,4 | 
[V:5] z4z4G,,4 | 
[V:1] F3GA6GF | 
[V:2] d3ef3ec4 | 
[V:3] A12 | 
[V:4] z4F4A3B | 
[V:5] D,8F,4 | 
[V:1] E8E4 | 
[V:2] z4c4c4 | 
[V:3] G8A4 | 
[V:4] c4z2C2E3F | 
[V:5] C,8A,,2C,2 | 
[V:1] D3EF4E2G2- | 
[V:2] B3A/G/F4G4 | 
[V:3] B8c4- | 
[V:4] G3FD4C4 | 
[V:5] G,,4z4z4 | 
[V:1] G2E2F4F4 | 
[V:2] G3AB8 | 
[V:3] c4d8 | 
[V:4] E4D8 | 
[V:5] C,4B,,8 | 
[V:1] E3FG2A2G2c2- | 
[V:2] G4z4z4 | 
[V:3] c12 | 
[V:4] z4E3FG2C2 | 
[V:5] C,8_E,4 | 
[V:1] c2=B2c8 | 
[V:2] z4z4c4 | 
[V:3] d4_e8 | 
[V:4] F4G8 | 
[V:5] D,4C,8 | 
[V:1] F8F4 | 
[V:2] A4A2d4d2 | 
[V:3] d12 | 
[V:4] z4A8 | 
[V:5] D,12 | 
[V:1] G4A2B4A2 | 
[V:2] B2c2A2d2c4 | 
[V:3] z12 | 
[V:4] G2E2F2B,2F4 | 
[V:5] z12 | 
[V:1] G2B4G4^F2 | 
[V:2] B3cd2_e2d4 | 
[V:3] z12 | 
[V:4] G2d4cBA4 | 
[V:5] G,,4B,,2C,2D,4 | 
[V:1] G8B4 | 
[V:2] B4B2G2D4 | 
[V:3] d12- | 
[V:4] G8G4 | 
[V:5] G,,8G,,4 | 
[V:1] F3GABc3BG2 | 
[V:2] z4A4G4 | 
[V:3] d4c8 | 
[V:4] D4E4E4 | 
[V:5] B,,4A,,4C,4 | 
[V:1] F4F2B4A2 | 
[V:2] A2B3cdef4 | 
[V:3] d6B2c4 | 
[V:4] D4z4F4 | 
[V:5] z4B,,2G,,2F,,4 | 
[V:1] B8F2G2 | 
[V:2] d8d2B2 | 
[V:3] B12- | 
[V:4] G6FED2G2 | 
[V:5] z12 | 
[V:1] D8D3E | 
[V:2] f4z4z4 | 
[V:3] B12 | 
[V:4] F4F2G3FD2 | 
[V:5] B,,4B,,2G,,2B,,3C, | 
[V:1] F4z4A4 | 
[V:2] d8c4 | 
[V:3] A12 | 
[V:4] z4F6F2 | 
[V:5] D,8A,,4 | 
[V:1] D2G4B2A4 | 
[V:2] B2G2D3EF4 | 
[V:3] B8c4 | 
[V:4] G8C4 | 
[V:5] G,,8F,,4 | 
[V:1] G6FED2G2 | 
[V:2] D2G3AB3cd2- | 
[V:3] B12 | 
[V:4] z2D3ED2G4 | 
[V:5] G,,8G,,4 | 
[V:1] F2A3GG4^F2 | 
[V:2] d2d2c2_e2d4 | 
[V:3] A12 | 
[V:4] A2F3E/D/C2D4 | 
[V:5] D,4z4z4 | 
[V:1] G8z4 | 
[V:2] B3c/d/_e4d2_e2 | 
[V:3] G12- | 
[V:4] D4z4D2C2 | 
[V:5] G,,4C,4B,,2C,2 | 
[V:1] z4G8 | 
[V:2] d2_e4d2B4 | 
[V:3] G12 | 
[V:4] D2G3ABcd4- | 
[V:5] B,,2C,4B,,2G,,4 | 
[V:1] F4F4G3F | 
[V:2] A8B4 | 
[V:3] z12 | 
[V:4] d12 | 
[V:5] D,8G,,4 | 
[V:1] E2D2C2z2c4 | 
[V:2] c2B2_e2d4c2 | 
[V:3] z12 | 
[V:4] c2d2G2F2E4 | 
[V:5] A,,2B,,2C,2D,2A,,4 | 
[V:1] B2A4G4F2 | 
[V:2] d8d4 | 
[V:3] z12 | 
[V:4] D2F2G2B2A4 | 
[V:5] B,,C,D,2B,,2G,,2D,4 | 
[V:1] G2B4A2G3E | 
[V:2] B3cdef2e2c2 | 
[V:3] z12 | 
[V:4] z2G4F2G4 | 
[V:5] G,,3A,,B,,C,D,2E,4 | 
[V:1] F12 ||  
[V:2] d12 ||  
[V:3] z12 ||  
[V:4] A12 ||  
[V:5] D,12 ||  
[V:1]  [K:F] [K:clef=treble][M:2/1]G8 | 
[V:2]  [K:F] [K:clef=treble-8][M:2/1]d8 | 
[V:3]  [K:F] [K:clef=treble-8][M:2/1]z8 | 
[V:4]  [K:F] [K:clef=treble-8][M:2/1]B8 | 
[V:5]  [K:F] [K:clef=bass][M:2/1]G,,8 | 
[V:1] G4G4 | 
[V:2] d4d4 | 
[V:3] z8 | 
[V:4] B4B4 | 
[V:5] G,,4G,,4 | 
[V:1] F6F2 | 
[V:2] d6d2 | 
[V:3] z8 | 
[V:4] A6A2 | 
[V:5] D,6D,2 | 
[V:1] F4F4 | 
[V:2] d4d4 | 
[V:3] z8 | 
[V:4] A4A4 | 
[V:5] D,4D,4 | 
[V:1] G4G4 | 
[V:2] d4d4 | 
[V:3] z8 | 
[V:4] B4B4 | 
[V:5] G,,4G,,4 | 
[V:1] G8 | 
[V:2] c6c2 | 
[V:3] z8 | 
[V:4] G8 | 
[V:5] C,8 | 
[V:1] E8 | 
[V:2] c4c4 | 
[V:3] z8 | 
[V:4] G4A4 | 
[V:5] C,8 | 
[V:1] D4D4 | 
[V:2] F8 | 
[V:3] z8 | 
[V:4] B8 | 
[V:5] B,,4B,,4 | 
[V:1] C8 | 
[V:2] z4F4 | 
[V:3] z8 | 
[V:4] A4A4 | 
[V:5] F,,8 | 
[V:1] B,4B,4 | 
[V:2] D4G4 | 
[V:3] z8 | 
[V:4] G4D2E2 | 
[V:5] G,,4G,,4 | 
[V:1] D8 | 
[V:2] F2G2F2B2- | 
[V:3] z8 | 
[V:4] D3EF2G2- | 
[V:5] B,,8 | 
[V:1] D4D4 | 
[V:2] B2AGF2G2 | 
[V:3] z8 | 
[V:4] G2FED4 | 
[V:5] B,,4B,,4 | 
[V:1] C8 | 
[V:2] A3GE4 | 
[V:3] z8 | 
[V:4] E8 | 
[V:5] A,,8 | 
[V:1] D4E2G2 | 
[V:2] D4z4 | 
[V:3] z8 | 
[V:4] z8 | 
[V:5] z8 | 
[V:1] F4E4 | 
[V:2] z8 | 
[V:3] z8 | 
[V:4] D4E2G2 | 
[V:5] z8 | 
[V:1] F2A2G4 | 
[V:2] z8 | 
[V:3] z8 | 
[V:4] F4E4 | 
[V:5] z8 | 
[V:1] F4G2B2 | 
[V:2] z8 | 
[V:3] z8 | 
[V:4] F2A2G4 | 
[V:5] z8 | 
[V:1] A4G4 | 
[V:2] z8 | 
[V:3] z8 | 
[V:4] F4G2B2 | 
[V:5] z4G,,4 | 
[V:1] E2C2z2D2- | 
[V:2] z4G4 | 
[V:3] z8 | 
[V:4] A4G2D2 | 
[V:5] A,,2C,2B,,4 | 
[V:1] D2C2D4 | 
[V:2] A2c2B4 | 
[V:3] z8 | 
[V:4] E4D2F2 | 
[V:5] A,,4B,,2D,2 | 
[V:1] z2E2D4 | 
[V:2] A4B2d2 | 
[V:3] z8 | 
[V:4] E4F4 | 
[V:5] C,4B,,4 | 
[V:1] E4z2F2- | 
[V:2] c4B4 | 
[V:3] z8 | 
[V:4] E2G2F4 | 
[V:5] C,2_E,2D,4 | 
[V:1] F2E2F4 | 
[V:2] c2_e2d4 | 
[V:3] z8 | 
[V:4] G4F2A2 | 
[V:5] C,4D,4 | 
[V:1] z2G4FE | 
[V:2] c4c2c2 | 
[V:3] z8 | 
[V:4] G2C2G4 | 
[V:5] _E,8 | 
[V:1] F8 | 
[V:2] d8 | 
[V:3] z8 | 
[V:4] A8 | 
[V:5] D,8 | 
[V:1] G8 | 
[V:2] _e8 | 
[V:3] z8 | 
[V:4] z8 | 
[V:5] z8 | 
[V:1] G4F3G | 
[V:2] _e4d4- | 
[V:3] z8 | 
[V:4] z8 | 
[V:5] z8 | 
[V:1] A2B4A2- | 
[V:2] d4c4 | 
[V:3] z8 | 
[V:4] z8 | 
[V:5] z8 | 
[V:1] A2G2A2B2- | 
[V:2] B4A2d2- | 
[V:3] z8 | 
[V:4] z8 | 
[V:5] z8 | 
[V:1] BAGFG4 | 
[V:2] dcBAB4 | 
[V:3] z8 | 
[V:4] z8 | 
[V:5] z8 | 
[V:1] F8 | 
[V:2] A8 | 
[V:3] z8 | 
[V:4] D8 | 
[V:5] z8 | 
[V:1] G4B4- | 
[V:2] B4B4 | 
[V:3] G8- | 
[V:4] D8 | 
[V:5] G,,8 | 
[V:1] B4G4 | 
[V:2] d4c4- | 
[V:3] G8 | 
[V:4] D4E4 | 
[V:5] B,,4C,4 | 
[V:1] A8 | 
[V:2] c4A4 | 
[V:3] F8 | 
[V:4] C8 | 
[V:5] A,,8 | 
[V:1] D8 | 
[V:2] B8 | 
[V:3] G8 | 
[V:4] D8 | 
[V:5] G,,8 | 
[V:1] F4E2G2 | 
[V:2] A4c2B2 | 
[V:3] z8 | 
[V:4] z8 | 
[V:5] z8 | 
[V:1] F2A2G2B2- | 
[V:2] d2c2_e2d2- | 
[V:3] z8 | 
[V:4] z8 | 
[V:5] z8 | 
[V:1] BAG4^F2 | 
[V:2] d2B2A4 | 
[V:3] z8 | 
[V:4] z8 | 
[V:5] z8 | 
[V:1] G8 | 
[V:2] G4z2G2 | 
[V:3] B8- | 
[V:4] D8 | 
[V:5] G,,8 | 
[V:1] G4G4 | 
[V:2] d4B4 | 
[V:3] B8 | 
[V:4] D6E2 | 
[V:5] G,,8 | 
[V:1] A8 | 
[V:2] A8 | 
[V:3] c8 | 
[V:4] F4F4 | 
[V:5] F,,4F,,4 | 
[V:1] B4G4 | 
[V:2] G4G4 | 
[V:3] B8- | 
[V:4] D8- | 
[V:5] G,,6A,,2 | 
[V:1] D8 | 
[V:2] F4F4 | 
[V:3] B8 | 
[V:4] D8 | 
[V:5] B,,8 | 
[V:1] C3DEFG2 | 
[V:2] E8 | 
[V:3] z8 | 
[V:4] z8 | 
[V:5] z8 | 
[V:1] F2A4GF | 
[V:2] D2F3GA2- | 
[V:3] z8 | 
[V:4] z8 | 
[V:5] z8 | 
[V:1] E4F2D2 | 
[V:2] A2G2A2F2 | 
[V:3] z8 | 
[V:4] z8 | 
[V:5] z8 | 
[V:1] C4E3F | 
[V:2] E8- | 
[V:3] A8- | 
[V:4] A4c4- | 
[V:5] A,,8 | 
[V:1] E2A3GE2- | 
[V:2] E8 | 
[V:3] A8- | 
[V:4] c2c4A2- | 
[V:5] A,,8 | 
[V:1] E2D4^C2 | 
[V:2] z4A4 | 
[V:3] A8 | 
[V:4] A2F2E4 | 
[V:5] A,,4A,,4 | 
[V:1] D4B,4 | 
[V:2] F4D4 | 
[V:3] z8 | 
[V:4] D8 | 
[V:5] B,,8 | 
[V:1] _E4C4 | 
[V:2] z4G4 | 
[V:3] z8 | 
[V:4] G4E4 | 
[V:5] C,8 | 
[V:1] D4B,4 | 
[V:2] B3cd3e | 
[V:3] B8 | 
[V:4] D4G4- | 
[V:5] B,,4G,,4 | 
[V:1] A,8 | 
[V:2] f4z4 | 
[V:3] c8 | 
[V:4] G4^F4 | 
[V:5] A,,8 | 
[V:1] z8 | 
[V:2] d8 | 
[V:3] B4G4 | 
[V:4] G8 | 
[V:5] G,,8 | 
[V:1] A8 | 
[V:2] d4d4 | 
[V:3] A8 | 
[V:4] D8 | 
[V:5] z8 | 
[V:1] B6G2 | 
[V:2] B8 | 
[V:3] G8- | 
[V:4] D4D4 | 
[V:5] G,,4G,,4 | 
[V:1] G8 | 
[V:2] c8 | 
[V:3] G8 | 
[V:4] E6F2 | 
[V:5] C,4C,3D, | 
[V:1] z8 | 
[V:2] z8 | 
[V:3] z8 | 
[V:4] G4A4 | 
[V:5] E,4F,4 | 
[V:1] z8 | 
[V:2] z8 | 
[V:3] z8 | 
[V:4] G2B3Ac2- | 
[V:5] E,2D,2G,2E,2 | 
[V:1] z8 | 
[V:2] z8 | 
[V:3] z8 | 
[V:4] cBAGA2B2- | 
[V:5] F,3G,D,4 | 
[V:1] z8 | 
[V:2] z8 | 
[V:3] z8 | 
[V:4] B2G4^F2 | 
[V:5] D,2B,,2A,,4 | 
[V:1] G6F2 | 
[V:2] d8 | 
[V:3] B8- | 
[V:4] G4G4 | 
[V:5] G,,4G,,4 | 
[V:1] D4G4- | 
[V:2] d8 | 
[V:3] B8 | 
[V:4] G8 | 
[V:5] G,,4G,,4 | 
[V:1] G4F4 | 
[V:2] d3cA4 | 
[V:3] A8 | 
[V:4] D4d4- | 
[V:5] z4D,4 | 
[V:1] G4E4 | 
[V:2] z8 | 
[V:3] G8 | 
[V:4] d4^c4 | 
[V:5] E,4E,4 | 
[V:1] F4F3E | 
[V:2] z4d4 | 
[V:3] A8 | 
[V:4] d8 | 
[V:5] D,4D,4 | 
[V:1] D3CA,2G,2 | 
[V:2] f6e2 | 
[V:3] z8 | 
[V:4] z8 | 
[V:5] z8 | 
[V:1] B,2A,2G,2C2 | 
[V:2] d2c2B2A2 | 
[V:3] z8 | 
[V:4] z8 | 
[V:5] z8 | 
[V:1] B,2A,2D2C2- | 
[V:2] G2F2B2A2- | 
[V:3] z8 | 
[V:4] z8 | 
[V:5] z8 | 
[V:1] CDB,2A,4 | 
[V:2] A2G4^F2 | 
[V:3] z8 | 
[V:4] z8 | 
[V:5] z8 | 
[V:1] G,4G4- | 
[V:2] G8 | 
[V:3] B8 | 
[V:4] D8 | 
[V:5] G,,8 | 
[V:1] G4E4 | 
[V:2] z4G4 | 
[V:3] c8 | 
[V:4] E4E4 | 
[V:5] C,8 | 
[V:1] F6G2 | 
[V:2] B8 | 
[V:3] d8 | 
[V:4] D8 | 
[V:5] B,,8 | 
[V:1] A8- | 
[V:2] A8 | 
[V:3] c8 | 
[V:4] F4F4 | 
[V:5] F,,8- | 
[V:1] A8 | 
[V:2] F3GA4 | 
[V:3] c8 | 
[V:4] F8 | 
[V:5] F,,4F,,4 | 
[V:1] B8 | 
[V:2] D4F4 | 
[V:3] d8 | 
[V:4] F8 | 
[V:5] B,,4D,4 | 
[V:1] c8 | 
[V:2] G6A2 | 
[V:3] _e8 | 
[V:4] z8 | 
[V:5] C,8 | 
[V:1] F8 | 
[V:2] B8- | 
[V:3] d8- | 
[V:4] F8 | 
[V:5] B,,8 | 
[V:1] B8- | 
[V:2] B8 | 
[V:3] d8- | 
[V:4] F8 | 
[V:5] B,,8 | 
[V:1] B8 | 
[V:2] B3cd2e2 | 
[V:3] d8- | 
[V:4] F4F4 | 
[V:5] B,,4B,,4 | 
[V:1] A8 | 
[V:2] f8 | 
[V:3] d8 | 
[V:4] F8 | 
[V:5] D,8 | 
[V:1] B6AG | 
[V:2] d4B4 | 
[V:3] z8 | 
[V:4] G8 | 
[V:5] B,,4G,,4 | 
[V:1] F4G4- | 
[V:2] A4G4 | 
[V:3] z8 | 
[V:4] A4B4 | 
[V:5] D,4z2G,2 | 
[V:1] G4F4- | 
[V:2] E2G2A2B2 | 
[V:3] z8 | 
[V:4] c4d4 | 
[V:5] C,2_E,2D,2B,,2 | 
[V:1] F2D2E4 | 
[V:2] c2F4E2 | 
[V:3] z8 | 
[V:4] c2B4A2 | 
[V:5] A,,2B,,2C,4 | 
[V:1] D8 | 
[V:2] F4z4 | 
[V:3] d8- | 
[V:4] B8 | 
[V:5] B,,8 | 
[V:1] z8 | 
[V:2] D4F2G2- | 
[V:3] d8- | 
[V:4] F4A2B2- | 
[V:5] z8 | 
[V:1] z4F4 | 
[V:2] G2FED4 | 
[V:3] d8- | 
[V:4] B2AGF4 | 
[V:5] z8 | 
[V:1] A2B4AG | 
[V:2] dcBAG4 | 
[V:3] d8 | 
[V:4] F2G4FE | 
[V:5] z8 | 
[V:1] F4F2G2- | 
[V:2] A4B2d2 | 
[V:3] z8 | 
[V:4] D4z4 | 
[V:5] z2D,4B,,2 | 
[V:1] G2FED4 | 
[V:2] c4A2d2- | 
[V:3] z8 | 
[V:4] G4F2F2 | 
[V:5] C,4D,4 | 
[V:1] z8 | 
[V:2] d2c2z2d2- | 
[V:3] z8 | 
[V:4] E4D4 | 
[V:5] G,4F,2F,2 | 
[V:1] G4F2F2 | 
[V:2] dec3dB2 | 
[V:3] z8 | 
[V:4] z4z2F2 | 
[V:5] E,4D,4 | 
[V:1] E4D4 | 
[V:2] c4A4 | 
[V:3] z8 | 
[V:4] G2E2F4 | 
[V:5] C,4D,4 | 
[V:1] z4F4- | 
[V:2] B4F4 | 
[V:3] d8 | 
[V:4] D8 | 
[V:5] B,,8 | 
[V:1] F2G2A4 | 
[V:2] B4A4 | 
[V:3] d4c4 | 
[V:4] B,4F4 | 
[V:5] z4F,,4 | 
[V:1] B2c3BB2- | 
[V:2] G2F2G2D2 | 
[V:3] B2A2B4 | 
[V:4] D2C2z4 | 
[V:5] G,,2A,,2G,,2B,,2 | 
[V:1] B2A2A2GA | 
[V:2] FGABc4 | 
[V:3] c8 | 
[V:4] z4F4- | 
[V:5] F,,8 | 
[V:1] B8 | 
[V:2] d6f2- | 
[V:3] B8- | 
[V:4] F4G2F2 | 
[V:5] B,,8 | 
[V:1] z8 | 
[V:2] fed4cB | 
[V:3] B8 | 
[V:4] D4G4 | 
[V:5] z8 | 
[V:1] z8 | 
[V:2] A2Bcd2c2 | 
[V:3] z8 | 
[V:4] F3GB4- | 
[V:5] D,4B,,2C,2 | 
[V:1] z8 | 
[V:2] A2B2A4 | 
[V:3] z8 | 
[V:4] B2G4^F2 | 
[V:5] D,2B,,2C,2D,2 | 
[V:1] z4G4- | 
[V:2] G2B4_e2- | 
[V:3] z8 | 
[V:4] G8 | 
[V:5] _E,8 | 
[V:1] G4G4 | 
[V:2] e2dcB2G2 | 
[V:3] z8 | 
[V:4] G4G4 | 
[V:5] _E,4E,4 | 
[V:1] D4F4 | 
[V:2] d4d4 | 
[V:3] B8- | 
[V:4] F4D4 | 
[V:5] B,,4B,,4 | 
[V:1] G8 | 
[V:2] z8 | 
[V:3] B8 | 
[V:4] D8 | 
[V:5] G,,8 | 
[V:1] [M:3/1]A8F4- | 
[V:2] [M:3/1]d8d4 | 
[V:3] [M:3/1]A12- | 
[V:4] [M:3/1]F8F4- | 
[V:5] [M:3/1]D,8D,4- | 
[V:1] F4D8 | 
[V:2] f4f8 | 
[V:3] A4B8 | 
[V:4] F4F8 | 
[V:5] D,4D,8 | 
[V:1] G8E4 | 
[V:2] e8c4 | 
[V:3] c12- | 
[V:4] G8G4 | 
[V:5] C,8C,4- | 
[V:1] C4E6F2 | 
[V:2] A6B2c4 | 
[V:3] c12 | 
[V:4] E4C8 | 
[V:5] C,4A,,8 | 
[V:1] G8^F4 | 
[V:2] d8d4 | 
[V:3] B4A8 | 
[V:4] z12 | 
[V:5] G,,4D,8 | 
[V:1] G8E4 | 
[V:2] B8c4 | 
[V:3] G12- | 
[V:4] z12 | 
[V:5] G,,8C,4 | 
[V:1] E6C2D4 | 
[V:2] G6A2B4 | 
[V:3] G12- | 
[V:4] z12 | 
[V:5] C,8B,,4 | 
[V:1] C4D4G4- | 
[V:2] _e4d4_e4 | 
[V:3] G12- | 
[V:4] z12 | 
[V:5] C,4G,,4C,4 | 
[V:1] G4G8 | 
[V:2] d8c4 | 
[V:3] G12 | 
[V:4] z12 | 
[V:5] D,4_E,8 | 
[V:1] F8D4 | 
[V:2] d12 | 
[V:3] z12 | 
[V:4] A8B4 | 
[V:5] D,8D,4 | 
[V:1] C8C4 | 
[V:2] z12 | 
[V:3] z12 | 
[V:4] A6B2c4 | 
[V:5] F,8F,4 | 
[V:1] F4G8 | 
[V:2] A8G4 | 
[V:3] z12 | 
[V:4] d8^c4 | 
[V:5] F,4E,8 | 
[V:1] F8z4 | 
[V:2] A8F4 | 
[V:3] z12 | 
[V:4] d12 | 
[V:5] D,8z4 | 
[V:1] F8B4 | 
[V:2] D4F4f4- | 
[V:3] z12 | 
[V:4] d8d4 | 
[V:5] D,8B,,4 | 
[V:1] A4G8 | 
[V:2] f4d8 | 
[V:3] z12 | 
[V:4] c4B8 | 
[V:5] F,4G,8 | 
[V:1] A8E4- | 
[V:2] f8z4 | 
[V:3] z12 | 
[V:4] A8G4- | 
[V:5] F,8C,4- | 
[V:1] E4G8 | 
[V:2] z4d8 | 
[V:3] z12 | 
[V:4] G4B8 | 
[V:5] C,4G,,8 | 
[V:1] G4G8 | 
[V:2] d4d8 | 
[V:3] z12 | 
[V:4] B4B8 | 
[V:5] G,,4G,,8 | 
[V:1] E8E4 | 
[V:2] c8c4 | 
[V:3] z12 | 
[V:4] A8G4 | 
[V:5] A,,8C,4 | 
[V:1] F8E4 | 
[V:2] A8c4 | 
[V:3] z12 | 
[V:4] F8G4 | 
[V:5] D,8C,4 | 
[V:1] D8^C4 | 
[V:2] G4A8 | 
[V:3] z12 | 
[V:4] D4E8 | 
[V:5] B,,4A,,8 | 
[V:1] D8C4 | 
[V:2] F8z4 | 
[V:3] z12 | 
[V:4] D8z4 | 
[V:5] z12 | 
[V:1] B,4G,4z4 | 
[V:2] G4B4c4 | 
[V:3] z12 | 
[V:4] z12 | 
[V:5] z12 | 
[V:1] z12 | 
[V:2] d8c4 | 
[V:3] z12 | 
[V:4] z12 | 
[V:5] G,,4B,,4C,4 | 
[V:1] z12 | 
[V:2] B8A4 | 
[V:3] z12 | 
[V:4] z12 | 
[V:5] D,8C,4 | 
[V:1] D4F4G4 | 
[V:2] B8G4 | 
[V:3] z12 | 
[V:4] z12 | 
[V:5] B,,4D,4E,4 | 
[V:1] A8B4 | 
[V:2] F4D6E2 | 
[V:3] z12 | 
[V:4] D4F4G4 | 
[V:5] F,4B,,4G,,4 | 
[V:1] c6B2A2G2 | 
[V:2] F6G2A4 | 
[V:3] z12 | 
[V:4] A8c4 | 
[V:5] F,,8z4 | 
[V:1] B8G4 | 
[V:2] D4B4c4 | 
[V:3] z12 | 
[V:4] d8G4 | 
[V:5] B,,8_E,4 | 
[V:1] F4A6G2 | 
[V:2] d6c2d4 | 
[V:3] z12 | 
[V:4] A4F4B4 | 
[V:5] D,8G,4 | 
[V:1] G8^F4 | 
[V:2] _e4d8 | 
[V:3] z12 | 
[V:4] c4A8 | 
[V:5] C,4D,8 | 
[V:1] G12 |]  
[V:2] d12 |]  
[V:3] G12 |]  
[V:4] G12 |]  
[V:5] G,,12 |]  
